Pods/ProtonCore-UIFoundations/libraries/UIFoundations/Sources/Assets.xcassets/Images/IconSet/ic-switch-on-lock.imageset/ic-switch-on-lock.svg

<svg width="24" height="24" viewBox="0 0 24 24" fill="none" xmlns="http://www.w3.org/2000/svg">
<path fill-rule="evenodd" clip-rule="evenodd" d="M7.17283 20.2498L7.19522 20.25H13.8775L12.5525 21H5.84754L7.17283 20.2498ZM5.79112 19.3083L3 14.1912V20.8882L5.79112 19.3083ZM17.5893 18.6363C17.9799 19.25 17.6405 20.03 16.9911 20.2112L13.1882 22.3638C13.0305 22.4531 12.8523 22.5 12.671 22.5H2.55C1.9701 22.5 1.5 22.0299 1.5 21.45V11.25H1.51224C1.50411 11.1868 1.5 11.1229 1.5 11.0588V3C1.5 2.17157 2.17157 1.5 3 1.5H11.25C12.0784 1.5 12.75 2.17157 12.75 3V11.0316L17.5893 18.6363ZM15.8837 18.75H7.19522L3 11.0588V3H11.25V11.0316C11.25 11.3169 11.3314 11.5962 11.4845 11.8369L15.8837 18.75ZM7.5 6C7.91421 6 8.25 6.33579 8.25 6.75V9C8.25 9.41421 7.91421 9.75 7.5 9.75C7.08579 9.75 6.75 9.41421 6.75 9V6.75C6.75 6.33579 7.08579 6 7.5 6ZM9.20096 15.7497C9.06715 15.518 9.03171 15.292 9.05109 15.1311C9.07043 14.9706 9.13196 14.9235 9.15072 14.9127C9.16948 14.9019 9.24097 14.8721 9.3897 14.9356C9.53868 14.9993 9.71667 15.143 9.85048 15.3747C9.98429 15.6065 10.0197 15.8325 10.0004 15.9933C9.98101 16.1539 9.91948 16.2009 9.90072 16.2117C9.88196 16.2226 9.81047 16.2523 9.66175 16.1888C9.51276 16.1252 9.33478 15.9815 9.20096 15.7497ZM8.40072 13.6137C7.8814 13.9135 7.62369 14.4385 7.56186 14.9517C7.50006 15.4646 7.62152 16.0141 7.90192 16.4997C8.18232 16.9854 8.59744 17.3653 9.07252 17.5682C9.54786 17.7713 10.1314 17.8106 10.6507 17.5108C11.17 17.211 11.4278 16.6859 11.4896 16.1727C11.5514 15.6599 11.4299 15.1104 11.1495 14.6247C10.8691 14.1391 10.454 13.7591 9.97893 13.5562C9.50358 13.3532 8.92004 13.3138 8.40072 13.6137ZM15 5.7C15 5.03726 15.5373 4.5 16.2 4.5H16.35V4.125C16.35 2.79952 17.4245 1.725 18.75 1.725C20.0755 1.725 21.15 2.79952 21.15 4.125V4.5H21.3C21.9627 4.5 22.5 5.03726 22.5 5.7V9.3C22.5 9.96274 21.9627 10.5 21.3 10.5H16.2C15.5373 10.5 15 9.96274 15 9.3V5.7ZM20.1 4.5V4.125C20.1 3.37942 19.4956 2.775 18.75 2.775C18.0044 2.775 17.4 3.37942 17.4 4.125V4.5H20.1Z" fill="#0C0C14"/>
</svg>

<svg xmlns="http://www.w3.org/2000/svg" width="24" height="24" viewBox="0 0 24 24">
  <g class="ic-switch-on-lock">
    <path fill-rule="evenodd" d="M7.173 20.25h6.704l-1.325.75H5.849l1.325-.75Zm-1.382-.942L3 14.191v6.697l2.791-1.58Zm11.798-.672c.39.614.052 1.394-.598 1.575l-3.803 2.153a1.05 1.05 0 0 1-.517.136H2.55c-.58 0-1.05-.47-1.05-1.05v-10.2h.012a1.499 1.499 0 0 1-.012-.191V3A1.5 1.5 0 0 1 3 1.5h8.25a1.5 1.5 0 0 1 1.5 1.5v8.032l4.84 7.604Zm-1.705.114H7.195L3 11.059V3h8.25v8.032c0 .285.081.564.235.805l4.399 6.913ZM7.5 6a.75.75 0 0 1 .75.75V9a.75.75 0 0 1-1.5 0V6.75A.75.75 0 0 1 7.5 6Zm1.701 9.75a1.031 1.031 0 0 1-.15-.619c.02-.16.081-.207.1-.218.018-.011.09-.04.239.023s.327.207.46.439c.134.232.17.457.15.618-.019.16-.08.208-.1.219-.018.01-.09.04-.238-.023a1.031 1.031 0 0 1-.461-.44Zm-.8-2.136c-.52.3-.777.824-.84 1.338a2.54 2.54 0 0 0 .34 1.548 2.53 2.53 0 0 0 1.172 1.068c.475.203 1.058.243 1.578-.057.519-.3.777-.825.839-1.338a2.525 2.525 0 0 0-.34-1.548 2.525 2.525 0 0 0-1.171-1.069c-.475-.203-1.059-.242-1.578.058ZM15 5.7a1.2 1.2 0 0 1 1.2-1.2h.15v-.375a2.4 2.4 0 1 1 4.8 0V4.5h.15a1.2 1.2 0 0 1 1.2 1.2v3.6a1.2 1.2 0 0 1-1.2 1.2h-5.1A1.2 1.2 0 0 1 15 9.3V5.7Zm5.1-1.2v-.375a1.35 1.35 0 1 0-2.7 0V4.5h2.7Z" class="Icon"/>
  </g>
</svg>
